bell-off.svg

<svg fill="currentColor" viewBox="0 0 24 24"><path d="M20.84 22.73 18.11 20H3v-1l2-2v-6c0-1.14.29-2.27.83-3.28L1.11 3l1.28-1.27 19.72 19.73zM19 15.8V11c0-3.1-2.03-5.83-5-6.71V4a2 2 0 0 0-2-2 2 2 0 0 0-2 2v.29c-.61.18-1.2.45-1.74.8zM12 23a2 2 0 0 0 2-2h-4a2 2 0 0 0 2 2"/></svg>

<svg  viewBox="0 0 24 24" fill="currentColor"><path  d="M20.84,22.73L18.11,20H3V19L5,17V11C5,9.86 5.29,8.73 5.83,7.72L1.11,3L2.39,1.73L22.11,21.46L20.84,22.73M19,15.8V11C19,7.9 16.97,5.17 14,4.29C14,4.19 14,4.1 14,4A2,2 0 0,0 12,2A2,2 0 0,0 10,4C10,4.1 10,4.19 10,4.29C9.39,4.47 8.8,4.74 8.26,5.09L19,15.8M12,23A2,2 0 0,0 14,21H10A2,2 0 0,0 12,23Z"/></svg>
